X:1
T:Title
%%score 1 2 3
L:1/8
Q:1/4=150
M:4/4
K:C
V:1 treble nm="Grand Piano"
V:2 bass nm="Grand Piano, Melody"
V:3 bass nm="Grand Piano"
V:1
 z4 c4 | A2 A2 c2 d2 | e4 e2 e2 | d4 d2 e2 | g4 e4 | c2 c2 A2 d2 | e4 ed B2 | A8 | z4 d4 | %9
 c2 c2 A2 c2 | d4 d4 | e2 e2 c2 c2 | d4 c4 | A2 A2 c2 d2 | e4 e2 e2 | d4 d2 e2 | g4 e4 | %17
 c2 c2 A2 d2 | e4 ed B2 | A8 | z4 d4 | c2 c2 A2 c2 | d4 d4 | e2 e2 c2 c2 | d4 c4 | A2 A2 c2 d2 | %26
 e4 e2 e2 | d4 d2 e2 | g4 e4 | c2 c2 A2 d2 | e4 ed B2 | A8 |] %32
V:2
 z4 A,4 | C2 C2 A,2 G,2 | A,4 G,2 E,2 | G,4 G,2 E,2 | G,4 A,4 | C2 C2 A,2 G,2 | A,3 G, E,2 G,2 | %7
 A,8 | z4 G,4 | A,2 A,2 C2 E2 | D4 G,4 | A,2 A,2[K:treble] C2 E2 | D4 E4 | D2 C2[K:bass] A,2 G,2 | %14
 A,4 G,2 E,2 | G,4 G,2 E,2 | G,4 A,4 | C2 C2 A,2 G,2 | A,3 G, E,2 G,2 | A,8 | z4 G,4 | %21
 A,2 A,2 C2 E2 | D4 G,4 | A,2 A,2[K:treble] C2 E2 | D4 E4 | D2 C2[K:bass] A,2 G,2 | A,4 G,2 E,2 | %27
 G,4 G,2 E,2 | G,4 A,4 | C2 C2 A,2 G,2 | A,3 G, E,2 G,2 | A,8 |] %32
V:3
 z4 A,4 | E,2 E,2 C,2 B,,2 | A,,4 C,2 E,2 | G,4 G,2 A,2 | E,4 A,,4 | E,2 E,2 D,2 D,2 | %6
 C,4 [A,,E,]2 [B,,E,]2 | A,,8 | z4 G,,4 | A,,2 A,,2 C,2 A,,2 | D,4 G,4 | E,2 E,2 F,2 E,2 | %12
 D,4 E,4 | D,2 C,2 A,,2 D,2 | C,4 C,2 E,2 | G,4 G,2 A,2 | E,4 A,,4 | E,2 E,2 D,2 D,2 | %18
 C,4 [A,,E,]2 [B,,E,]2 | A,,8 | z4 G,,4 | A,,2 A,,2 C,2 A,,2 | D,4 G,4 | E,2 E,2 F,2 E,2 | %24
 D,4 E,4 | D,2 C,2 A,,2 D,2 | C,4 C,2 E,2 | G,4 G,2 A,2 | E,4 A,,4 | E,2 E,2 D,2 D,2 | %30
 C,4 [A,,E,]2 [B,,E,]2 | A,,8 |] %32

